X: 24173
T: Lord Dalhousie
R: reel
M: 4/4
K: Dmajor
A|d2fd Adfd|(3efg fe dBBd|d2fd (3efg fe|dBAF D2D2:|
AGFA BABd|AGFA B2EE|AGFA dgfe|dBAF (3DDD D2:|

